X: 3160
Q: "Reel."
M: C
L: 1/8
K: F	% and Dm
uA |\
f2(ed) cAAc | defd eaag |\
f2(ed) cAAd | AGFE D/D/D (DA) |\
f2(ed) cAAc | defd eaag |\
f2(ed) cAAc | AGFE D/D/D D |]
fa df Ad Fd | AGFE D/D/D D |]


